X:926
T:Reel 926
M:4/4
K:Dmaj
L:1/8
FADF A2GE|A,D (3DCD B,EA,G|AFEF DCDF|AGAG FDDF|AFEF D2EF|A,B, (3B,CD EFGE|AGEF DCDF|ABAG FDD2|Addc defd|cAAG FEDc| (3ded dc d2Ac|BdAG FDD2|FAdc dfed|cded cAAd|fdec dBAF|EDEG FDD2|
